X: 623
T: Ebrûlerinin Zahmı Nihandır
C: II. Mahmut (Adlî)
O: Turkey
F: http://compmusic.upf.edu/node/140
N: hicaz--kalenderi--aksak--ebrulerinin_zahmi--ii_mahmud
N: makam= hicaz
N: form= kalenderi
N: usul= aksak = 9/8
M: 9/8
L: 1/16
K: C _7/8B ^f ^c 
Q: 1/4=144
%%MIDI tuningsystem comma53
ABAG F2G2 A2B2 c2d2 e2 | de =fgef decd cBc2 d2cB  | 
w:  ARANAĞME  |   | 
ABAG F2G2 A2B2 c2d2 e2 | de =fgef decB BAA6  | 
w:   |   | 
ABAG F2G2 A2B2 c2d2 e2 | de =fgef decd cBc2 d2cB  | 
w:  ARANAĞME  |   | 
ABAG F2G2 A2B2 c2d2 e2 | de =fgef decB BAA3g^fg  | 
w:   |   | 
a4 g3a a8-a2 | a4a=c' =baa2 g2=f2 e2dc  | \
w:  *  Eb *  rû  |  *  le *  ri *  nin   | 
d4 e2f2 a2g2 =f2e2 d2 | 
w:  zah  | 
c3Bc2 d2cB BAA4(3BAB  | G8 e2=fe agfe d2 | 
w:  *  *  mı  ni han  |  dır   | 
c2 (3BABc2 d2cB BAA4a2  | ag=fe d2dc cBBA A6 | 
w:  *  *  *  *  ci ğe rim  |  de  *  *  *  *  a *  man_ *  a *  man    | 
AB AGF2 G2A2 B2c2 d2e2  | de=fg efde cdcB c2d2 cB | 
w:  ARANAĞME  |   | 
AB AGF2 G2A2 B2c2 d2e2  | de=fg efde cBBA A6 | 
w:   |   | 
AB AGF2 G2A2 B2c2 d2e2  | de=fg efde cdcB c2d2 cB | 
w:  ARANAĞME  |   | 
AB AGF2 G2A2 B2c2 d2e2  | de=fg efde cBBA A3g ^fg | 
w:   |   | 
a4g3aa8-a2  | a4 a=c'=ba a2g2 =f2e2 dc | \
w:  *  Eb *  rû  |  *  le *  ri *  nin   | 
d4e2 f2a2 g2=f2 e2d2  | 
w:  zah  | 
c3B c2d2 cBBA A4 (3BAB | G8e2 =feag fed2  | 
w:  *  *  mı  ni han  |  dır   | 
c2(3BAB c2d2 cBBA A4 a2 | ag =fed2 dccB BAA6  | 
w:  *  *  *  *  ci ğe rim  |  de  *  *  *  *  a *  man_ *  a *  man    | 
ABAG F2G2 A2B2 c2d2 e2 | de =fgef decd cBc2 d2cB  | 
w:  SAZ  |   | 
ABAG F2G2 A2B2 c2d2 e2 | de =fgef decd cBA6  | 
w:   |   | 
ABAG F2G2 A2B2 c2d2 e2 | de =fgef decd cBc2 d2cB  | 
w:  SAZ  |   | 
ABAG F2G2 A2B2 c2d2 e2 | de =fgef decd cBA6  | 
w:   |   | 
gaag f^efe f2g2 a2a2 a2 | a4a2 a2a2 a4 a4  | \
w:  SAZ SERBEST *  *  *  *  *  *  *  Sev dâ- yı  mu  |  hab bet  e di yor  şim  | 
=c'4 _1/4baa3gag =fed4 | 
w:  di  se *  rim *  de    | 
g2 a2a4=c'2 _1/4baa3gag  | =fed4e2 ^f2a2 g2(3=f2e2d2 | z18 | 
w:  Tak *  dî re  ne  *  ça  |  *  *  *  re   |  | 
c2 (3BABc2 d2cB BAA4(3BAB  | G8 e2=fe agfe d2 | 
w:  *  *  *  *  bu  da  var  |  mış   | 
c2 (3BABc2 d2cB BAA4a2  | ag=fe d2dc cBBA A6 | 
w:  *  *  *  *  ka de rim  |  de  *  *  *  *  a *  man_ *  a *  man    | 
|


